X: 21417
T: Kesh, The
R: jig
M: 6/8
K: Gmajor
D|:G>FG G>AB|A>GA A>Bd|e>dd g>dd|e>dB d>BA|
G>FG G>AB|A>GA A>Bd|e>dd g>dB|1 A>GF G>zD:|2 A>GF G>zA||
|:B>AB d>Bd|e>ge d>BA|B>AB d>BG|A>BA A>GA|
B>AB d>Bd|e>ge d>Bd|g>fg a>ga|b>gf|1 g>zd:|2 g>z z||

